!!!OTL: 782c. Eine Schwalbe macht keinen Sommer.
!!!ARE: Europa, Mitteleuropa, Deutschland
!!!SCT: E0782C
!!!TXL: @@DE
!!!YEM: Copyright 1995, estate of Helmut Schaffrath.
**kern	**text
*ICvox	*
*M4/4	*
*met(c)	*
*k[f#c#]	*
*D:	*
=1	=1
!LO:TX:a:t=Solo.	!
!LO:TX:a:t=Marsch.	!
!LO:TX:a:t=Soldaten-Marſchlied.	!
{4.a	Mor-
8f#	-gen
8.d	will
16f#	mein
8.b	Schatʒ
16f#	ab-
=2	=2
4a	-rei-
4g	-ſen,
2r}	.
=3	=3
{4.a	Ab-
8a	-ſchied
8.cc#	neh-
16b	-men
8.a	mit
16g	Ge-
=4	=4
2.f#	-walt;
4r}	.
=5	=5
{4.dd	drau-
8cc#	-ßen
8.ee	ſin-
16dd	-gen
8.cc#	ſchon
16dd	die
=6	=6
4b	Vö-
4b}	-gel
{8.ee	(ſin-
16dd	-gen
8.cc#	ſchon
16dd	die
=7	=7
8a	Vö-
8a	-gel)
8g#	in
8a	dem
8.cc#	dun-
16b	-kel-
8.a	-grü-
16g#	-nen
=8	=8
2f#	Wald.
4r}	.
!LO:TX:a:t=Chor-Refrain.	!
{8f#	Ach
8g	es
=9	=9
4a	fällt
8a	mir
8a	ſo
4a	ſchwer
8dd	aus-
8cc#	-ein-
=10	=10
4b	-an-
8b	-der
8b	ʒu
4b}	gehn,
{8e	wenn
8f#	die
=11	=11
(8gL	Hoff-
16a	.
16gJ)	.
8f#	-nung
8g	nicht
4b	wär
8a	auf
8g	ein
=12	=12
8f#L	Wie-
8eJ	.
8f#L	-derſehn.
8gJ	.
4a}	.
{8f#	Drum
8g	a-
=13	=13
4a	-de,
8a	drum
8a	a-
4a	-de,
8dd	drum
8cc#	a-
=14	=14
4b	-de,
8b	drum
8b	a-
4b}	-de!
{8eeL	Herʒ-
8ddJ	.
=15	=15
4.cc#	-lieb-
8cc#	-chen,
8ddL	le-
8cc#J	.
8bL	-be
8cc#J	.
=16	=16
2.dd	wohl!
4r}	.
==	==
!!!AGN: Abschieds - Lied, Liebe, Soldaten - Lied
!!!ONB: ESAC (Essen Associative Code) Database: ERK2
!!!AMT: simple quadruple
!!!AIN: vox
!!!EED: Helmut Schaffrath
!!!EEV: 1.0
!!!GTL: Abschieds- und Wanderlieder
!!!URL-scan: https://rosdok.uni-rostock.de/mcrviewer/recordIdentifier/rosdok_ppn745177662/iview2/phys_0587.iview2?x=98.5861279812857&y=2135.991620171815&scale=0.7029437510502773&rotation=0&layout=singlePageLayout
!!!ENC: Anna Maria Matuszewska
!!!EEV: 2024/12/17
*-	*-
